X: 100403
M: C|
L: 1/8
K: F
((3ucde) |\
f2F2 F2{a}g^f | g2G2 G2ga | bagf efga | gec2 c2de |
f2F2 F2{a}g^f | g2G2 G2ga | bagf efge | f2f2 f2 :||: (ucB) | Afcf
afcA | Bfdf bfdB | Afcf afcB | A2G2 G2(cB) |


